X:1
T:Londini Hornpipe(?) RDO.01
M:4/4
L:1/8
Q:1/2=90
S:Robert D. Owen MS,Indiana,1826.
R:.Hornpipe
O:Indiana,USA
A:New Harmony
Z:vmp.Chris Partington
K:G
dc|BGBd BGBd|gfge dBAG|ecdB cABG|F2A2A2dc|!
BGBd BGBd|gfge dBAG|ecdB cA” unclear”BG|D2G2G2:|!
|:dc|gggg gggg|dgba gfed|aaaa aaaa|cfag fedc|!
BgdB AecA|GdBG fefd|gfge dcBA|B2G2G2:|

